X:21
T: Jie er ge
N: C0027
O: China,Shaanxi, Shangxian, Sd)
S: I, 77, 1)]
N: Vereinzelt Verzierungen.
R: Xiaodiao. Biaoda aiqing]
M: 2/4
L: 1/16
K: F
dd2df2dc | dcBAG4 | c3dG2A2 | AGFDD4 |
d3cd2c2 | d2cAG4 | c3dG2A2 | AGFDD4 |
d3df2dc | dcAGAGF2 |
A2AGF2FG | A2ddG3A | c3dG2A2 | AGFDD4 |
d3cd2c2 | d2cAG3F | c3dG2A2 | AGFDD4

@@@ Tune index: 6022
